;PYCAM-META-DATA: Filename: /home/jack/openScad/wuerfel311.stl
;PYCAM-META-DATA: Timestamp: 2015-01-03 21:59:30.046178
;PYCAM-META-DATA: Version: 0.5.1
;Estimated machine time: 241 minutes
G40 (disable tool radius compensation)
G49 (disable tool length compensation)
G80 (cancel modal motion)
G54 (select coordinate system 1)
G90 (disable incremental moves)
G21 (metric)
G61 (exact path mode)
F100.00000
S10000.00000
;PYCAM_TOOLPATH_SETTINGS: START
;[Bounds]
;maxz = 40.0
;maxx = 42.5
;maxy = 42.5
;minx = -2.5
;miny = -2.5
;minz = 0.0
;
;[Tool]
;torus_radius = 0.25
;speed = 10000.0
;shape = CylindricalCutter
;tool_radius = 1.5
;feedrate = 100.0
;
;[Process]
;engrave_offset = 0.0
;step_down = 3.0
;generator = PushCutter
;postprocessor = SimpleCutter
;overlap_percent = 0
;milling_style = ignore
;material_allowance = 0.5
;pocketing_type = none
;path_direction = x
;
;PYCAM_TOOLPATH_SETTINGS: END
T1 M6
G0 Z25.0000
M3 (start spindle)
G04 P3 (wait for 3 seconds)
 X-2.5000 Y-2.5000
G1 Z40.0000
 X42.5000
 Y0.5000
 X-2.5000
 Y3.5000
 X42.5000
 Y6.5000
 X-2.5000
 Y9.5000
 X-1.9365
G0 Z25.0000
 X2.3284
G1 Z40.0000
 X42.5000
 Y12.5000
 X5.3284
G0 Z25.0000
 X-2.0000
G1 Z40.0000
 X-2.5000
 Y15.5000
 X-2.0000
G0 Z25.0000
 X8.3284
G1 Z40.0000
 X42.5000
 Y18.5000
 X11.3284
G0 Z25.0000
 X-2.0000
G1 Z40.0000
 X-2.5000
 Y21.5000
 X-2.0000
G0 Z25.0000
 X14.3284
G1 Z40.0000
 X42.5000
 Y24.5000
 X17.3284
G0 Z25.0000
 X-2.0000
G1 Z40.0000
 X-2.5000
 Y27.5000
 X-2.0000
G0 Z25.0000
 X20.3284
G1 Z40.0000
 X42.5000
 Y30.5000
 X23.3284
G0 Z25.0000
 X-2.0000
G1 Z40.0000
 X-2.5000
 Y33.5000
 X-2.0000
G0 Z25.0000
 X26.3284
G1 Z40.0000
 X42.5000
 Y36.5000
 X29.3284
G0 Z25.0000
 X-2.0000
G1 Z40.0000
 X-2.5000
 Y39.5000
 X-2.0000
G0 Z25.0000
 X31.9365
G1 Z40.0000
 X42.5000
 Y42.5000
 X-2.5000
 Z37.1429
 X42.5000
 Y39.5000
 X31.9365
G0 Z25.0000
 X-2.0000
G1 Z37.1429
 X-2.5000
 Y36.5000
 X-2.0000
G0 Z25.0000
 X29.3284
G1 Z37.1429
 X42.5000
 Y33.5000
 X26.3284
G0 Z25.0000
 X-2.0000
G1 Z37.1429
 X-2.5000
 Y30.5000
 X-2.0000
G0 Z25.0000
 X23.3284
G1 Z37.1429
 X42.5000
 Y27.5000
 X20.3284
G0 Z25.0000
 X-2.0000
G1 Z37.1429
 X-2.5000
 Y24.5000
 X-2.0000
G0 Z25.0000
 X17.3284
G1 Z37.1429
 X42.5000
 Y21.5000
 X14.3284
G0 Z25.0000
 X-2.0000
G1 Z37.1429
 X-2.5000
 Y18.5000
 X-2.0000
G0 Z25.0000
 X11.3284
G1 Z37.1429
 X42.5000
 Y15.5000
 X8.3284
G0 Z25.0000
 X-2.0000
G1 Z37.1429
 X-2.5000
 Y12.5000
 X-2.0000
G0 Z25.0000
 X5.3284
G1 Z37.1429
 X42.5000
 Y9.5000
 X2.3284
G0 Z25.0000
 X-1.9365
G1 Z37.1429
 X-2.5000
 Y6.5000
 X42.5000
 Y3.5000
 X-2.5000
 Y0.5000
 X42.5000
 Y-2.5000
 X-2.5000
 Z34.2857
 X42.5000
 Y0.5000
 X-2.5000
 Y3.5000
 X42.5000
 Y6.5000
 X-2.5000
 Y9.5000
 X-1.9365
G0 Z25.0000
 X2.3284
G1 Z34.2857
 X42.5000
 Y12.5000
 X5.3284
G0 Z25.0000
 X-2.0000
G1 Z34.2857
 X-2.5000
 Y15.5000
 X-2.0000
G0 Z25.0000
 X8.3284
G1 Z34.2857
 X42.5000
 Y18.5000
 X11.3284
G0 Z25.0000
 X-2.0000
G1 Z34.2857
 X-2.5000
 Y21.5000
 X-2.0000
G0 Z25.0000
 X14.3284
G1 Z34.2857
 X42.5000
 Y24.5000
 X17.3284
G0 Z25.0000
 X-2.0000
G1 Z34.2857
 X-2.5000
 Y27.5000
 X-2.0000
G0 Z25.0000
 X20.3284
G1 Z34.2857
 X42.5000
 Y30.5000
 X23.3284
G0 Z25.0000
 X-2.0000
G1 Z34.2857
 X-2.5000
 Y33.5000
 X-2.0000
G0 Z25.0000
 X26.3284
G1 Z34.2857
 X42.5000
 Y36.5000
 X29.3284
G0 Z25.0000
 X-2.0000
G1 Z34.2857
 X-2.5000
 Y39.5000
 X-2.0000
G0 Z25.0000
 X31.9365
G1 Z34.2857
 X42.5000
 Y42.5000
 X-2.5000
 Z31.4286
 X42.5000
 Y39.5000
 X31.9365
G0 Z25.0000
 X-2.0000
G1 Z31.4286
 X-2.5000
 Y36.5000
 X-2.0000
G0 Z25.0000
 X29.3284
G1 Z31.4286
 X42.5000
 Y33.5000
 X26.3284
G0 Z25.0000
 X-2.0000
G1 Z31.4286
 X-2.5000
 Y30.5000
 X-2.0000
G0 Z25.0000
 X23.3284
G1 Z31.4286
 X42.5000
 Y27.5000
 X20.3284
G0 Z25.0000
 X-2.0000
G1 Z31.4286
 X-2.5000
 Y24.5000
 X-2.0000
G0 Z25.0000
 X17.3284
G1 Z31.4286
 X42.5000
 Y21.5000
 X14.3284
G0 Z25.0000
 X-2.0000
G1 Z31.4286
 X-2.5000
 Y18.5000
 X-2.0000
G0 Z25.0000
 X11.3284
G1 Z31.4286
 X42.5000
 Y15.5000
 X8.3284
G0 Z25.0000
 X-2.0000
G1 Z31.4286
 X-2.5000
 Y12.5000
 X-2.0000
G0 Z25.0000
 X5.3284
G1 Z31.4286
 X42.5000
 Y9.5000
 X2.3284
G0 Z25.0000
 X-1.9365
G1 Z31.4286
 X-2.5000
 Y6.5000
 X42.5000
 Y3.5000
 X-2.5000
 Y0.5000
 X42.5000
 Y-2.5000
 X-2.5000
 Z28.5714
 X42.5000
 Y0.5000
 X32.0000
G0 Z25.0000
 X26.5714
G1 Z28.5714
 X-2.5000
 Y3.5000
 X26.5714
G0 Z25.0000
 X32.0000
G1 Z28.5714
 X42.5000
 Y6.5000
 X32.0000
G0 Z25.0000
 X26.5714
G1 Z28.5714
 X-2.5000
 Y9.5000
 X-1.9365
G0 Z25.0000
 X41.9365
G1 Z28.5714
 X42.5000
 Y12.5000
 X41.6888
G0 Z25.0000
 X-2.0000
G1 Z28.5714
 X-2.5000
 Y15.5000
 X-2.0000
G0 Z25.0000
 X32.0000
G1 Z28.5714
 X42.5000
 Y18.5000
 X32.0000
G0 Z25.0000
 X-2.0000
G1 Z28.5714
 X-2.5000
 Y21.5000
 X-2.0000
G0 Z25.0000
 X32.0000
G1 Z28.5714
 X42.5000
 Y24.5000
 X32.0000
G0 Z25.0000
 X-2.0000
G1 Z28.5714
 X-2.5000
 Y27.5000
 X-2.0000
G0 Z25.0000
 X32.0000
G1 Z28.5714
 X42.5000
 Y30.5000
 X32.0000
G0 Z25.0000
 X-2.0000
G1 Z28.5714
 X-2.5000
 Y33.5000
 X-2.0000
G0 Z25.0000
 X32.0000
G1 Z28.5714
 X42.5000
 Y36.5000
 X32.0000
G0 Z25.0000
 X-2.0000
G1 Z28.5714
 X-2.5000
 Y39.5000
 X-2.0000
G0 Z25.0000
 X32.0000
G1 Z28.5714
 X42.5000
 Y42.5000
 X-2.5000
 Z25.7143
 X42.5000
 Y39.5000
 X32.0000
G0 Z25.0000
 X-2.0000
G1 Z25.7143
 X-2.5000
 Y36.5000
 X-2.0000
G0 Z25.0000
 X32.0000
G1 Z25.7143
 X42.5000
 Y33.5000
 X32.0000
G0 Z25.0000
 X-2.0000
G1 Z25.7143
 X-2.5000
 Y30.5000
 X-2.0000
G0 Z25.0000
 X32.0000
G1 Z25.7143
 X42.5000
 Y27.5000
 X32.0000
G0 Z25.0000
 X-2.0000
G1 Z25.7143
 X-2.5000
 Y24.5000
 X-2.0000
G0 Z25.0000
 X32.0000
G1 Z25.7143
 X42.5000
 Y21.5000
 X32.0000
G0 Z25.0000
 X-2.0000
G1 Z25.7143
 X-2.5000
 Y18.5000
 X-2.0000
G0 Z25.0000
 X32.0000
G1 Z25.7143
 X42.5000
 Y15.5000
 X41.5892
G0 Z25.0000
 X-2.0000
G1 Z25.7143
 X-2.5000
 Y12.5000
 X-2.0000
G0 Z25.0000
 X42.0000
G1 Z25.7143
 X42.5000
 Y9.5000
 X41.9365
G0 Z25.0000
 X-1.9365
G1 Z25.7143
 X-2.5000
 Y6.5000
 X23.7143
G0 Z25.0000
 X32.0000
G1 Z25.7143
 X42.5000
 Y3.5000
 X32.0000
G0 Z25.0000
 X23.7143
G1 Z25.7143
 X-2.5000
 Y0.5000
 X23.7143
G0 Z25.0000
 X32.0000
G1 Z25.7143
 X42.5000
 Y-2.5000
 X-2.5000
 Z22.8571
 X42.5000
 Y0.5000
 X32.0000
G0 Z25.0000
 X20.8571
G1 Z22.8571
 X-2.5000
 Y3.5000
 X20.8571
G0 Z25.0000
 X32.0000
G1 Z22.8571
 X42.5000
 Y6.5000
 X32.0000
G0 Z25.0000
 X20.8571
G1 Z22.8571
 X-2.5000
 Y9.5000
 X-1.9365
G0 Z25.0000
 X41.9365
G1 Z22.8571
 X42.5000
 Y12.5000
 X42.0000
G0 Z25.0000
 X-2.0000
G1 Z22.8571
 X-2.5000
 Y15.5000
 X-2.0000
G0 Z25.0000
 X42.0000
G1 Z22.8571
 X42.5000
 Y18.5000
 X41.4691
G0 Z25.0000
 X-2.0000
G1 Z22.8571
 X-2.5000
 Y21.5000
 X-2.0000
G0 Z25.0000
 X32.0000
G1 Z22.8571
 X42.5000
 Y24.5000
 X32.0000
G0 Z25.0000
 X-2.0000
G1 Z22.8571
 X-2.5000
 Y27.5000
 X-2.0000
G0 Z25.0000
 X32.0000
G1 Z22.8571
 X42.5000
 Y30.5000
 X32.0000
G0 Z25.0000
 X-2.0000
G1 Z22.8571
 X-2.5000
 Y33.5000
 X-2.0000
G0 Z25.0000
 X32.0000
G1 Z22.8571
 X42.5000
 Y36.5000
 X32.0000
G0 Z25.0000
 X-2.0000
G1 Z22.8571
 X-2.5000
 Y39.5000
 X-2.0000
G0 Z25.0000
 X32.0000
G1 Z22.8571
 X42.5000
 Y42.5000
 X-2.5000
 Z20.0000
 X42.5000
 Y39.5000
 X32.0000
G0 Z25.0000
 X-2.0000
G1 Z20.0000
 X-2.5000
 Y36.5000
 X-2.0000
G0 Z25.0000
 X32.0000
G1 Z20.0000
 X42.5000
 Y33.5000
 X32.0000
G0 Z25.0000
 X-2.0000
G1 Z20.0000
 X-2.5000
 Y30.5000
 X-2.0000
G0 Z25.0000
 X32.0000
G1 Z20.0000
 X42.5000
 Y27.5000
 X32.0000
G0 Z25.0000
 X-2.0000
G1 Z20.0000
 X-2.5000
 Y24.5000
 X-2.0000
G0 Z25.0000
 X32.0000
G1 Z20.0000
 X42.5000
 Y21.5000
 X41.3229
G0 Z25.0000
 X-2.0000
G1 Z20.0000
 X-2.5000
 Y18.5000
 X-2.0000
G0 Z25.0000
 X42.0000
G1 Z20.0000
 X42.5000
 Y15.5000
 X42.0000
G0 Z25.0000
 X-2.0000
G1 Z20.0000
 X-2.5000
 Y12.5000
 X-2.0000
G0 Z25.0000
 X42.0000
G1 Z20.0000
 X42.5000
 Y9.5000
 X41.9365
G0 Z25.0000
 X-1.9365
G1 Z20.0000
 X-2.5000
 Y6.5000
 X18.0000
G0 Z25.0000
 X32.0000
G1 Z20.0000
 X42.5000
 Y3.5000
 X32.0000
G0 Z25.0000
 X18.0000
G1 Z20.0000
 X-2.5000
 Y0.5000
 X18.0000
G0 Z25.0000
 X32.0000
G1 Z20.0000
 X42.5000
 Y-2.5000
 X-2.5000
 Z17.1429
 X42.5000
 Y0.5000
 X32.0000
G0 Z25.0000
 X15.1429
G1 Z17.1429
 X-2.5000
 Y3.5000
 X15.1429
G0 Z25.0000
 X32.0000
G1 Z17.1429
 X42.5000
 Y6.5000
 X32.0000
G0 Z25.0000
 X15.1429
G1 Z17.1429
 X-2.5000
 Y9.5000
 X-1.9365
G0 Z25.0000
 X41.9365
G1 Z17.1429
 X42.5000
 Y12.5000
 X42.0000
G0 Z25.0000
 X-2.0000
G1 Z17.1429
 X-2.5000
 Y15.5000
 X-2.0000
G0 Z25.0000
 X42.0000
G1 Z17.1429
 X42.5000
 Y18.5000
 X42.0000
G0 Z25.0000
 X-2.0000
G1 Z17.1429
 X-2.5000
 Y21.5000
 X-2.0000
G0 Z25.0000
 X42.0000
G1 Z17.1429
 X42.5000
 Y24.5000
 X41.1406
G0 Z25.0000
 X-2.0000
G1 Z17.1429
 X-2.5000
 Y27.5000
 X-2.0000
G0 Z25.0000
 X32.0000
G1 Z17.1429
 X42.5000
 Y30.5000
 X32.0000
G0 Z25.0000
 X-2.0000
G1 Z17.1429
 X-2.5000
 Y33.5000
 X-2.0000
G0 Z25.0000
 X32.0000
G1 Z17.1429
 X42.5000
 Y36.5000
 X32.0000
G0 Z25.0000
 X-2.0000
G1 Z17.1429
 X-2.5000
 Y39.5000
 X-2.0000
G0 Z25.0000
 X32.0000
G1 Z17.1429
 X42.5000
 Y42.5000
 X-2.5000
 Z14.2857
 X42.5000
 Y39.5000
 X32.0000
G0 Z25.0000
 X-2.0000
G1 Z14.2857
 X-2.5000
 Y36.5000
 X-2.0000
G0 Z25.0000
 X32.0000
G1 Z14.2857
 X42.5000
 Y33.5000
 X32.0000
G0 Z25.0000
 X-2.0000
G1 Z14.2857
 X-2.5000
 Y30.5000
 X-2.0000
G0 Z25.0000
 X32.0000
G1 Z14.2857
 X42.5000
 Y27.5000
 X40.9007
G0 Z25.0000
 X-2.0000
G1 Z14.2857
 X-2.5000
 Y24.5000
 X-2.0000
G0 Z25.0000
 X42.0000
G1 Z14.2857
 X42.5000
 Y21.5000
 X42.0000
G0 Z25.0000
 X-2.0000
G1 Z14.2857
 X-2.5000
 Y18.5000
 X-2.0000
G0 Z25.0000
 X42.0000
G1 Z14.2857
 X42.5000
 Y15.5000
 X42.0000
G0 Z25.0000
 X-2.0000
G1 Z14.2857
 X-2.5000
 Y12.5000
 X-2.0000
G0 Z25.0000
 X42.0000
G1 Z14.2857
 X42.5000
 Y9.5000
 X41.9365
G0 Z25.0000
 X-1.9365
G1 Z14.2857
 X-2.5000
 Y6.5000
 X12.2857
G0 Z25.0000
 X32.0000
G1 Z14.2857
 X42.5000
 Y3.5000
 X32.0000
G0 Z25.0000
 X12.2857
G1 Z14.2857
 X-2.5000
 Y0.5000
 X12.2857
G0 Z25.0000
 X32.0000
G1 Z14.2857
 X42.5000
 Y-2.5000
 X-2.5000
 Z11.4286
 X42.5000
 Y0.5000
 X32.0000
G0 Z25.0000
 X9.4286
G1 Z11.4286
 X-2.5000
 Y3.5000
 X9.4286
G0 Z25.0000
 X32.0000
G1 Z11.4286
 X42.5000
 Y6.5000
 X32.0000
G0 Z25.0000
 X9.4286
G1 Z11.4286
 X-2.5000
 Y9.5000
 X-1.9365
G0 Z25.0000
 X41.9365
G1 Z11.4286
 X42.5000
 Y12.5000
 X42.0000
G0 Z25.0000
 X-2.0000
G1 Z11.4286
 X-2.5000
 Y15.5000
 X-2.0000
G0 Z25.0000
 X42.0000
G1 Z11.4286
 X42.5000
 Y18.5000
 X42.0000
G0 Z25.0000
 X-2.0000
G1 Z11.4286
 X-2.5000
 Y21.5000
 X-2.0000
G0 Z25.0000
 X42.0000
G1 Z11.4286
 X42.5000
 Y24.5000
 X42.0000
G0 Z25.0000
 X-2.0000
G1 Z11.4286
 X-2.5000
 Y27.5000
 X-2.0000
G0 Z25.0000
 X42.0000
G1 Z11.4286
 X42.5000
 Y30.5000
 X40.5297
G0 Z25.0000
 X-2.0000
G1 Z11.4286
 X-2.5000
 Y33.5000
 X-2.0000
G0 Z25.0000
 X32.0000
G1 Z11.4286
 X42.5000
 Y36.5000
 X32.0000
G0 Z25.0000
 X-2.0000
G1 Z11.4286
 X-2.5000
 Y39.5000
 X-2.0000
G0 Z25.0000
 X32.0000
G1 Z11.4286
 X42.5000
 Y42.5000
 X-2.5000
 Z8.5714
 X42.5000
 Y39.5000
 X32.0000
G0 Z25.0000
 X-2.0000
G1 Z8.5714
 X-2.5000
 Y36.5000
 X-2.0000
G0 Z25.0000
 X32.0000
G1 Z8.5714
 X42.5000
 Y33.5000
 X32.0000
G0 Z25.0000
 X-2.0000
G1 Z8.5714
 X-2.5000
 Y30.5000
 X-2.0000
G0 Z25.0000
 X42.0000
G1 Z8.5714
 X42.5000
 Y27.5000
 X42.0000
G0 Z25.0000
 X-2.0000
G1 Z8.5714
 X-2.5000
 Y24.5000
 X-2.0000
G0 Z25.0000
 X42.0000
G1 Z8.5714
 X42.5000
 Y21.5000
 X42.0000
G0 Z25.0000
 X-2.0000
G1 Z8.5714
 X-2.5000
 Y18.5000
 X-2.0000
G0 Z25.0000
 X42.0000
G1 Z8.5714
 X42.5000
 Y15.5000
 X42.0000
G0 Z25.0000
 X-2.0000
G1 Z8.5714
 X-2.5000
 Y12.5000
 X-2.0000
G0 Z25.0000
 X42.0000
G1 Z8.5714
 X42.5000
 Y9.5000
 X41.9365
G0 Z25.0000
 X-1.9365
G1 Z8.5714
 X-2.5000
 Y6.5000
 X6.5714
G0 Z25.0000
 X32.0000
G1 Z8.5714
 X42.5000
 Y3.5000
 X32.0000
G0 Z25.0000
 X6.5714
G1 Z8.5714
 X-2.5000
 Y0.5000
 X6.5714
G0 Z25.0000
 X32.0000
G1 Z8.5714
 X42.5000
 Y-2.5000
 X-2.5000
 Z5.7143
 X42.5000
 Y0.5000
 X32.0000
G0 Z25.0000
 X3.7143
G1 Z5.7143
 X-2.5000
 Y3.5000
 X3.7143
G0 Z25.0000
 X32.0000
G1 Z5.7143
 X42.5000
 Y6.5000
 X32.0000
G0 Z25.0000
 X3.7143
G1 Z5.7143
 X-2.5000
 Y9.5000
 X-1.9365
G0 Z25.0000
 X41.9365
G1 Z5.7143
 X42.5000
 Y12.5000
 X42.0000
G0 Z25.0000
 X-2.0000
G1 Z5.7143
 X-2.5000
 Y15.5000
 X-2.0000
G0 Z25.0000
 X42.0000
G1 Z5.7143
 X42.5000
 Y18.5000
 X42.0000
G0 Z25.0000
 X-2.0000
G1 Z5.7143
 X-2.5000
 Y21.5000
 X-2.0000
G0 Z25.0000
 X42.0000
G1 Z5.7143
 X42.5000
 Y24.5000
 X42.0000
G0 Z25.0000
 X-2.0000
G1 Z5.7143
 X-2.5000
 Y27.5000
 X-2.0000
G0 Z25.0000
 X42.0000
G1 Z5.7143
 X42.5000
 Y30.5000
 X42.0000
G0 Z25.0000
 X-2.0000
G1 Z5.7143
 X-2.5000
 Y33.5000
 X-2.0000
G0 Z25.0000
 X42.0000
G1 Z5.7143
 X42.5000
 Y36.5000
 X32.0000
G0 Z25.0000
 X-2.0000
G1 Z5.7143
 X-2.5000
 Y39.5000
 X-2.0000
G0 Z25.0000
 X32.0000
G1 Z5.7143
 X42.5000
 Y42.5000
 X-2.5000
 Z2.8571
 X42.5000
 Y39.5000
 X32.0000
G0 Z25.0000
 X-2.0000
G1 Z2.8571
 X-2.5000
 Y36.5000
 X-2.0000
G0 Z25.0000
 X42.0000
G1 Z2.8571
 X42.5000
 Y33.5000
 X42.0000
G0 Z25.0000
 X-2.0000
G1 Z2.8571
 X-2.5000
 Y30.5000
 X-2.0000
G0 Z25.0000
 X42.0000
G1 Z2.8571
 X42.5000
 Y27.5000
 X42.0000
G0 Z25.0000
 X-2.0000
G1 Z2.8571
 X-2.5000
 Y24.5000
 X-2.0000
G0 Z25.0000
 X42.0000
G1 Z2.8571
 X42.5000
 Y21.5000
 X42.0000
G0 Z25.0000
 X-2.0000
G1 Z2.8571
 X-2.5000
 Y18.5000
 X-2.0000
G0 Z25.0000
 X42.0000
G1 Z2.8571
 X42.5000
 Y15.5000
 X42.0000
G0 Z25.0000
 X-2.0000
G1 Z2.8571
 X-2.5000
 Y12.5000
 X-2.0000
G0 Z25.0000
 X42.0000
G1 Z2.8571
 X42.5000
 Y9.5000
 X41.9365
G0 Z25.0000
 X-1.9365
G1 Z2.8571
 X-2.5000
 Y6.5000
 X0.8571
G0 Z25.0000
 X32.0000
G1 Z2.8571
 X42.5000
 Y3.5000
 X32.0000
G0 Z25.0000
 X0.8571
G1 Z2.8571
 X-2.5000
 Y0.5000
 X0.8571
G0 Z25.0000
 X32.0000
G1 Z2.8571
 X42.5000
 Y-2.5000
 X-2.5000
 Z0.0000
 X42.5000
 Y0.5000
 X32.0000
G0 Z25.0000
 X-2.0000
G1 Z0.0000
 X-2.5000
 Y3.5000
 X-2.0000
G0 Z25.0000
 X32.0000
G1 Z0.0000
 X42.5000
 Y6.5000
 X32.0000
G0 Z25.0000
 X-2.0000
G1 Z0.0000
 X-2.5000
 Y9.5000
 X-2.0000
G0 Z25.0000
 X41.9365
G1 Z0.0000
 X42.5000
 Y12.5000
 X42.0000
G0 Z25.0000
 X-2.0000
G1 Z0.0000
 X-2.5000
 Y15.5000
 X-2.0000
G0 Z25.0000
 X42.0000
G1 Z0.0000
 X42.5000
 Y18.5000
 X42.0000
G0 Z25.0000
 X-2.0000
G1 Z0.0000
 X-2.5000
 Y21.5000
 X-2.0000
G0 Z25.0000
 X42.0000
G1 Z0.0000
 X42.5000
 Y24.5000
 X42.0000
G0 Z25.0000
 X-2.0000
G1 Z0.0000
 X-2.5000
 Y27.5000
 X-2.0000
G0 Z25.0000
 X42.0000
G1 Z0.0000
 X42.5000
 Y30.5000
 X42.0000
G0 Z25.0000
 X-2.0000
G1 Z0.0000
 X-2.5000
 Y33.5000
 X-2.0000
G0 Z25.0000
 X42.0000
G1 Z0.0000
 X42.5000
 Y36.5000
 X42.0000
G0 Z25.0000
 X-2.0000
G1 Z0.0000
 X-2.5000
 Y39.5000
 X-2.0000
G0 Z25.0000
 X42.0000
G1 Z0.0000
 X42.5000
 Y42.5000
 X-2.5000
G0 Z25.0000
M5 (stop spindle)
G04 P3 (wait for 3 seconds)
F100.00000
S10000.00000
;PYCAM_TOOLPATH_SETTINGS: START
;[Bounds]
;maxz = 40.0
;maxx = 42.5
;maxy = 42.5
;minx = -2.5
;miny = -2.5
;minz = 0.0
;
;[Tool]
;torus_radius = 0.25
;speed = 10000.0
;shape = CylindricalCutter
;tool_radius = 1.5
;feedrate = 100.0
;
;[Process]
;engrave_offset = 0.0
;step_down = 1.5
;generator = PushCutter
;postprocessor = ContourCutter
;milling_style = ignore
;material_allowance = 0.2
;pocketing_type = none
;path_direction = x
;
;PYCAM_TOOLPATH_SETTINGS: END
G0 Z25.0000
M3 (start spindle)
G04 P3 (wait for 3 seconds)
 X-1.6248 Y9.5000
G1 Z40.0000
 X-1.7000 Y12.5000
 Y39.5000
 X31.6248
 X28.9042 Y36.5000
 X1.9042 Y9.5000
 X-1.6248
G0 Z25.0000
 X-1.7000 Y39.5000
G1 Z38.5185
 Y12.5000
 X-1.6248 Y9.5000
 X1.9042
 X28.9042 Y36.5000
 X31.6248 Y39.5000
 X-1.7000
G0 Z25.0000
 X-1.6248 Y9.5000
G1 Z37.0370
 X-1.7000 Y12.5000
 Y39.5000
 X31.6248
 X28.9042 Y36.5000
 X1.9042 Y9.5000
 X-1.6248
G0 Z25.0000
 X-1.7000 Y39.5000
G1 Z35.5556
 Y12.5000
 X-1.6248 Y9.5000
 X1.9042
 X28.9042 Y36.5000
 X31.6248 Y39.5000
 X-1.7000
G0 Z25.0000
 X-1.6248 Y9.5000
G1 Z34.0741
 X-1.7000 Y12.5000
 Y39.5000
 X31.6248
 X28.9042 Y36.5000
 X1.9042 Y9.5000
 X-1.6248
G0 Z25.0000
 X-1.7000 Y39.5000
G1 Z32.5926
 Y12.5000
 X-1.6248 Y9.5000
 X1.9042
 X28.9042 Y36.5000
 X31.6248 Y39.5000
 X-1.7000
G0 Z25.0000
 X-1.6248 Y9.5000
G1 Z31.1111
 X-1.7000 Y12.5000
 Y39.5000
 X31.6248
 X28.9042 Y36.5000
 X1.9042 Y9.5000
 X-1.6248
G0 Z25.0000
 X-1.7000 Y39.5000
G1 Z29.6296
 Y12.5000
 X-1.6248 Y9.5000
 X27.9296 Y6.5000
 Y0.5000
 X31.7000
 Y6.5000
 X41.6248 Y9.5000
 X31.7000 Y12.5000
 Y39.5000
 X-1.7000
G0 Z25.0000
 X26.4481 Y0.5000
G1 Z28.1481
 Y6.5000
 X-1.6248 Y9.5000
 X-1.7000 Y12.5000
 Y39.5000
 X31.7000
 Y15.5000
 X41.5716 Y12.5000
 X41.6248 Y9.5000
 X31.7000 Y6.5000
 Y0.5000
 X26.4481
G0 Z25.0000
 X-1.7000 Y39.5000
G1 Z26.6667
 Y12.5000
 X-1.6248 Y9.5000
 X24.9667 Y6.5000
 Y0.5000
 X31.7000
 Y6.5000
 X41.6248 Y9.5000
 X41.7000 Y12.5000
 X31.7000 Y15.5000
 Y39.5000
 X-1.7000
G0 Z25.0000
 X23.4852 Y0.5000
G1 Z25.1852
 Y6.5000
 X-1.6248 Y9.5000
 X-1.7000 Y12.5000
 Y39.5000
 X31.7000
 Y18.5000
 X41.5558 Y15.5000
 X41.7000 Y12.5000
 X41.6248 Y9.5000
 X31.7000 Y6.5000
 Y0.5000
 X23.4852
G0 Z25.0000
 X-1.7000 Y39.5000
G1 Z23.7037
 Y12.5000
 X-1.6248 Y9.5000
 X22.0037 Y6.5000
 Y0.5000
 X31.7000
 Y6.5000
 X41.6248 Y9.5000
 X41.7000 Y12.5000
 Y15.5000
 X31.7000 Y18.5000
 Y39.5000
 X-1.7000
G0 Z25.0000
 X20.5222 Y0.5000
G1 Z22.2222
 Y6.5000
 X-1.6248 Y9.5000
 X-1.7000 Y12.5000
 Y39.5000
 X31.7000
 Y21.5000
 X41.5390 Y18.5000
 X41.7000 Y15.5000
 Y12.5000
 X41.6248 Y9.5000
 X31.7000 Y6.5000
 Y0.5000
 X20.5222
G0 Z25.0000
 X-1.7000 Y39.5000
G1 Z20.7407
 Y12.5000
 X-1.6248 Y9.5000
 X19.0407 Y6.5000
 Y0.5000
 X31.7000
 Y6.5000
 X41.6248 Y9.5000
 X41.7000 Y12.5000
 Y18.5000
 X31.7000 Y21.5000
 Y39.5000
 X-1.7000
G0 Z25.0000
 X17.5593 Y0.5000
G1 Z19.2593
 Y6.5000
 X-1.6248 Y9.5000
 X-1.7000 Y12.5000
 Y39.5000
 X31.7000
 Y24.5000
 X41.5210 Y21.5000
 X41.7000 Y18.5000
 Y12.5000
 X41.6248 Y9.5000
 X31.7000 Y6.5000
 Y0.5000
 X17.5593
G0 Z25.0000
 X-1.7000 Y39.5000
G1 Z17.7778
 Y12.5000
 X-1.6248 Y9.5000
 X16.0778 Y6.5000
 Y0.5000
 X31.7000
 Y6.5000
 X41.6248 Y9.5000
 X41.7000 Y12.5000
 Y21.5000
 X31.7000 Y24.5000
 Y39.5000
 X-1.7000
G0 Z25.0000
 X14.5963 Y0.5000
G1 Z16.2963
 Y6.5000
 X-1.6248 Y9.5000
 X-1.7000 Y12.5000
 Y39.5000
 X31.7000
 Y27.5000
 X41.5020 Y24.5000
 X41.7000 Y21.5000
 Y12.5000
 X41.6248 Y9.5000
 X31.7000 Y6.5000
 Y0.5000
 X14.5963
G0 Z25.0000
 X-1.7000 Y39.5000
G1 Z14.8148
 Y12.5000
 X-1.6248 Y9.5000
 X13.1148 Y6.5000
 Y0.5000
 X31.7000
 Y6.5000
 X41.6248 Y9.5000
 X41.7000 Y12.5000
 Y24.5000
 X31.7000 Y27.5000
 Y39.5000
 X-1.7000
G0 Z25.0000
 X11.6333 Y0.5000
G1 Z13.3333
 Y6.5000
 X-1.6248 Y9.5000
 X-1.7000 Y12.5000
 Y39.5000
 X31.7000
 Y30.5000
 X41.4817 Y27.5000
 X41.7000 Y24.5000
 Y12.5000
 X41.6248 Y9.5000
 X31.7000 Y6.5000
 Y0.5000
 X11.6333
G0 Z25.0000
 X-1.7000 Y39.5000
G1 Z11.8519
 Y12.5000
 X-1.6248 Y9.5000
 X10.1519 Y6.5000
 Y0.5000
 X31.7000
 Y6.5000
 X41.6248 Y9.5000
 X41.7000 Y12.5000
 Y27.5000
 X31.7000 Y30.5000
 Y39.5000
 X-1.7000
G0 Z25.0000
 X8.6704 Y0.5000
G1 Z10.3704
 Y6.5000
 X-1.6248 Y9.5000
 X-1.7000 Y12.5000
 Y39.5000
 X31.7000
 Y33.5000
 X41.4603 Y30.5000
 X41.7000 Y27.5000
 Y12.5000
 X41.6248 Y9.5000
 X31.7000 Y6.5000
 Y0.5000
 X8.6704
G0 Z25.0000
 X-1.7000 Y39.5000
G1 Z8.8889
 Y12.5000
 X-1.6248 Y9.5000
 X7.1889 Y6.5000
 Y0.5000
 X31.7000
 Y6.5000
 X41.6248 Y9.5000
 X41.7000 Y12.5000
 Y30.5000
 X31.7000 Y33.5000
 Y39.5000
 X-1.7000
G0 Z25.0000
 X5.7074 Y0.5000
G1 Z7.4074
 Y6.5000
 X-1.6248 Y9.5000
 X-1.7000 Y12.5000
 Y39.5000
 X31.7000
 Y36.5000
 X41.4376 Y33.5000
 X41.7000 Y30.5000
 Y12.5000
 X41.6248 Y9.5000
 X31.7000 Y6.5000
 Y0.5000
 X5.7074
G0 Z25.0000
 X-1.7000 Y39.5000
G1 Z5.9259
 Y12.5000
 X-1.6248 Y9.5000
 X4.2259 Y6.5000
 Y0.5000
 X31.7000
 Y6.5000
 X41.6248 Y9.5000
 X41.7000 Y12.5000
 Y33.5000
 X31.7000 Y36.5000
 Y39.5000
 X-1.7000
G0 Z25.0000
 X2.7444 Y0.5000
G1 Z4.4444
 Y6.5000
 X-1.6248 Y9.5000
 X-1.7000 Y12.5000
 Y39.5000
 X31.7000
 X41.4135 Y36.5000
 X41.7000 Y33.5000
 Y12.5000
 X41.6248 Y9.5000
 X31.7000 Y6.5000
 Y0.5000
 X2.7444
G0 Z25.0000
 X-1.7000 Y39.5000
G1 Z2.9630
 Y12.5000
 X-1.6248 Y9.5000
 X1.2630 Y6.5000
 Y0.5000
 X31.7000
 Y6.5000
 X41.6248 Y9.5000
 X41.7000 Y12.5000
 Y36.5000
 X31.7000 Y39.5000
 X-1.7000
G0 Z25.0000
 X-0.2185 Y0.5000
G1 Z1.4815
 Y6.5000
 X-1.6248 Y9.5000
 X-1.7000 Y12.5000
 Y39.5000
 X41.3881
 X41.7000 Y36.5000
 Y12.5000
 X41.6248 Y9.5000
 X31.7000 Y6.5000
 Y0.5000
 X-0.2185
G0 Z25.0000
 X-1.7000 Y39.5000
G1 Z0.0000
 Y0.5000
 X31.7000
 Y6.5000
 X41.6248 Y9.5000
 X41.7000 Y12.5000
 Y39.5000
 X-1.7000
G0 Z25.0000
M5 (stop spindle)
G04 P3 (wait for 3 seconds)
F100.00000
S10000.00000
;PYCAM_TOOLPATH_SETTINGS: START
;[Bounds]
;maxz = 40.0
;maxx = 38.5
;maxy = 38.5
;minx = 1.5
;miny = 1.5
;minz = 0.0
;
;[Tool]
;torus_radius = 0.25
;speed = 10000.0
;shape = CylindricalCutter
;tool_radius = 1.5
;feedrate = 100.0
;
;[Process]
;engrave_offset = 0.0
;step_down = 3.0
;generator = DropCutter
;postprocessor = PathAccumulator
;overlap_percent = 60
;milling_style = ignore
;material_allowance = 0.0
;pocketing_type = none
;path_direction = x
;
;PYCAM_TOOLPATH_SETTINGS: END
G0 Z25.0000
M3 (start spindle)
G04 P3 (wait for 3 seconds)
 X1.5000 Y1.5000
G1 Z3.0000
 X28.4996 Z29.9996
 X28.5025 Z30.0000
 X31.4924
 X31.5158 Z0.0000
 X38.5000
 Y2.6935
 X31.5041
 X31.4983 Z30.0000
 X28.5025
 X28.4091 Z29.9091
 X1.5000 Z3.0000
 Y3.8871
 X28.4996 Z29.9996
 X28.5025 Z30.0000
 X31.4924
 X31.5158 Z0.0000
 X38.5000
 Y5.0806
 X31.5041
 X31.4983 Z30.0000
 X28.5025
 X28.4091 Z29.9091
 X1.5000 Z3.0000
 Y6.2742
 X28.4996 Z29.9996
 X28.5025 Z30.0000
 X31.4924
 X31.5158 Z0.0000
 X38.5000
 Y7.4677
 X31.5041
 X31.4983 Z30.0000
 X28.5025
 X28.4091 Z29.9091
 X1.5000 Z3.0000
G0 Z25.0000
 Y8.6613
G1 Z30.0000
 X38.5000
 Y9.8548
 X1.9789
 X1.9730 Z40.0000
 X1.5000
 Y11.0484
 X3.1694
 X3.1698 Z30.0000
 X38.5000
G0 Z25.0000
 Y12.2419
G1 Z29.2581
 X31.5001
 X31.4999 Z30.0000
 X4.3643
 X4.3629 Z40.0000
 X1.5000
 Y13.4355
 X5.5527
 X5.5586 Z30.0000
 X31.4997
 X31.5005 Z28.0645
 X38.5000
G0 Z25.0000
 Y14.6290
G1 Z26.8710
 X31.5012
 X31.4997 Z30.0000
 X6.7557
 X6.7498 Z40.0000
 X1.5000
 Y15.8226
 X7.9411
 X7.9440 Z30.0000
 X31.4983
 X31.5012 Z25.6774
 X38.5000
G0 Z25.0000
 Y17.0161
G1 Z24.4839
 X31.5012
 X31.4997 Z30.0000
 X9.1383
 X9.1324 Z40.0000
 X1.5000
 Y18.2097
 X10.3295
 X10.3354 Z30.0000
 X31.4924
 X31.5041 Z23.2903
 X38.5000
G0 Z25.0000
 Y19.4032
G1 Z22.0968
 X31.5041
 X31.4983 Z30.0000
 X11.5267
 X11.5238 Z40.0000
 X1.5000
 Y20.5968
 X12.7180
 X12.7209 Z30.0000
 X31.4924
 X31.5041 Z20.9032
 X38.5000
G0 Z25.0000
 Y21.7903
G1 Z19.7097
 X31.5041
 X31.4983 Z30.0000
 X13.9151
 X13.9092 Z40.0000
 X1.5000
 Y22.9839
 X15.0947
 X15.1064 Z30.0000
 X31.4924
 X31.5041 Z18.5161
 X38.5000
G0 Z25.0000
 Y24.1774
G1 Z17.3226
 X31.5041
 X31.4983 Z30.0000
 X16.3093
 X16.2977 Z40.0000
 X1.5000
 Y25.3710
 X17.4890
 X17.4948 Z30.0000
 X31.4924
 X31.5041 Z16.1290
 X38.5000
G0 Z25.0000
 Y26.5645
G1 Z14.9355
 X31.5041
 X31.4983 Z30.0000
 X18.6861
 X18.6832 Z40.0000
 X1.5000
 Y27.7581
 X19.8774
 X19.8803 Z30.0000
 X31.4924
 X31.5041 Z13.7419
 X38.5000
G0 Z25.0000
 Y28.9516
G1 Z12.5484
 X31.5041
 X31.4983 Z30.0000
 X21.0745
 X21.0687 Z40.0000
 X1.5000
 Y30.1452
 X22.2658
 X22.2716 Z30.0000
 X31.4924
 X31.5041 Z11.3548
 X38.5000
G0 Z25.0000
 Y31.3387
G1 Z10.1613
 X31.5041
 X31.4983 Z30.0000
 X23.4629
 X23.4600 Z40.0000
 X1.5000
 Y32.5323
 X24.6484
 X24.6542 Z30.0000
 X31.4924
 X31.5041 Z8.9677
 X38.5000
G0 Z25.0000
 Y33.7258
G1 Z7.7742
 X31.5041
 X31.4983 Z30.0000
 X25.8513
 X25.8455 Z40.0000
 X1.5000
 Y34.9194
 X27.0397
 X27.0412 Z30.0000
 X31.4924
 X31.5158 Z6.5806
 X38.5000
G0 Z25.0000
 Y36.1129
G1 Z5.3871
 X31.5041
 X31.4983 Z30.0000
 X28.2343
 X28.2341 Z40.0000
 X1.5000
 Y37.3065
 X29.4252
 X29.4310 Z30.0000
 X31.4924
 X31.5158 Z4.1935
 X38.5000
G0 Z25.0000
 Y38.5000
G1 Z3.0000
 X31.5041
 X31.4983 Z30.0000
 X30.6223
 X30.6194 Z40.0000
 X1.5000
G0 Z25.0000
M5 (stop spindle)
G04 P3 (wait for 3 seconds)
G0 Z25.0000
M2 (end program)
